X: 1
T:Seud nan Ceud Bliadhna
T:The Centenary Jewel
C:Phil Cunningham
M:2/4
L:1/8
K:D
d/2>B/2| A/2>A/2A/2>B/2 G/2>B/2d/2>B/2 | A/2>e/2d/2<A/2 Bd/2>B/2|
A/2>A/2A/2>B/2 d/2>e/2f/2<a/2 | gB Bd/2>B/2 |A/2>A/2A/2>B/2 G/2>B/2d/2>B/2 |
A/2>e/2d/2<A/2 BA/2>B/2 |d/2>d/2<d/2f/2 e/2>f/2g/2<a/2 | fd d :|
f/2>g/2 | a/2>f/2 g/2>e/2 f/2<a/2 g/2>e/2 | f/2<d/2 g/2>d/2 Bd/2>B/2|
A/2>A/2<A/2>B/2 d/2>e/2f/2<a/2 |1 gB B2 f/2>g/2 | a/2>f/2g/2>e/2 f/2<a/2 g/2>e/2 |
f/2<d/2g/2>d/2 BA/2>B/2 | d/2>d/2d/2>f/2 e/2>f/2g/2<a/2 | fd d :|2 gB Bd/2>B/2|
A/2>A/2A/2>B/2 G/2>B/2d/2>B/2|A/2>e/2d/2<A/2 BA/2>B/2|d/2>d/2d/2>f/2 e/2>f/2g/2<a/2|fd d||
| d/2>B/2 | A/2>A/2A/2>B/2 G/2>G/2G/2>B/2 | A/2>A/2A/2<f/2 e/2>d/2e/2<f/2 |
A/2>A/2A/2>B/2 de/2>f/2 | g/2>e/2f/2<d/2 Bd/2>B/2 |A/2>A/2A/2>B/2 G/2>B/2d/2>B/2 |
A/2>a/2f/2<d/2 BA/2>B/2 |d/2>d/2d/2>f/2 e/2>f/2g/2<a/2 | f2d2 d2 :|
|f/2>g/2|a/2>A/2A/2<a/2 A/2<a/2g/2>e/2| f/2<d/2g/2>d/2 Bd/2>B/2|
A/2>A/2A/2>B/2 d/2>e/2f/2<a/2 |1 gB Bf/2>g/2| a/2>A/2A/2<a/2 A/2<a/2 g/2>e/2 |
f/2<d/2 g/2>d/2 BA/2>B/2 |d/2>d/2d/2>f/2 e/2>f/2g/2<a/2 |fd d  :|2 gB BA/2>B/2 |
G/2>B/2d/2>B/2 A/2>c/2e/2<c/2|d/2>e/2f/2<g/2 BA/2>B/2|d/2>d/2 d/2>f/2 e/2>f/2g/2<a/2 |fdd ||
